Origami/64x64/apps/curlew.svg

<svg width="64" height="64" version="1" xmlns="http://www.w3.org/2000/svg">
 <path d="M 6.8007812,5 C 5.2495812,5 4,6.2495812 4,7.8007812 L 4,54 c 0,0.008 0.00384,0.0154 0.0039,0.02344 L 4,58.316406 C 4,59.807128 5.2084502,61 6.6992188,61 L 57.300782,61 C 58.791538,61 60,59.807128 60,58.316406 L 60,54.007812 60,54 60,7.8007812 C 60,6.2495812 58.750418,5 57.199218,5 L 6.8007812,5 Z" style="opacity:.2"/>
 <path d="m60 53v-46.2c0-1.5512-1.2488-2.8-2.8-2.8h-50.4c-1.5512 0-2.8 1.2488-2.8 2.8v46.2c0 1.5512 1.2488 2.8 2.8 2.8h50.4c1.5512 0 2.8-1.2488 2.8-2.8z" style="fill:#4ab1f1"/>
 <path d="m4 57.317578c0 1.490722 1.2080596 2.682422 2.6988282 2.682422h50.602344c1.490756 0 2.698828-1.1917 2.698828-2.682422l-0.0054-17.317578c-1.168606 0.585114-3.022912 2.624266-3.56289 2.932032-1.513824 0.86315-3.120848 0.34075-4.008594 2.365234-0.328234 0.748604-0.02222 2.303102-0.751116 2.426934-1.271552 0.216016-5.672 0.0756-6.281758 0.4956-2.771338 1.57996-6.171966 2.486968-9.228516 3.358324-0.584358 0.16654-1.518194 2.029226-2.119726 2.257876-2.8432 1.080644-6.677026-1.836-9.613476-1.836-3.84275 0-10.628524 3.799078-14.48125 1.144-1.6829052-2.342274-3.3894746-2.900468-5.9418054-3.144z" style="fill:#4d4d4d"/>
 <path d="m24.781886 52.211314c-1.23615-0.611798-1.479198-1.620594-0.94137-1.952978 0.656236-0.405752 0.280754-2.763162-0.862412-5.414776-1.123726-2.606552-1.139034-2.686748-0.622392-3.263164 1.205966-1.345562 1.14357-1.420942-1.004236-1.213178-5.964047 0.576662-6.171817 1.562896-8.22999 2.417788-2.710641 1.125856-5.1522068 1.515842-5.1522068 1.201098 0-0.13342 0.358443-0.343194 0.7965414-0.466048l0.7965414-0.223096-0.8445952-0.170368c-0.8422612-0.16964-0.8398582-0.17326 0.868954-1.300696 5.0282872-5.107022 9.6236992-11.239772 16.203449-14.69549 0.823986-0.41756 1.766924-1.040434 1.968226-1.482244 0.19096-0.419112 0.34721-2.577354 0.34721-4.061796 0-3.146759 0.50775-4.822905 2.409668-5.392733 1.484726-0.193633 1.237072-0.28148 2.559896 0.540819 0.881208 0.547783 2.008242 2.196206 2.971702 2.315626 3.840138 0.476008 7.42321 1.941868 8.025154 2.915844 0.10848 0.1755-0.18136 0.12332-0.644052-0.11596-2.506346-1.296096-7.774948-2.180203-9.633126-1.298444-1.519904 0.721244-0.618858 1.377626-0.08098 4.432446 0.729576 4.143586 0.216016 7.45144-1.507746 9.711404-0.41421 0.543098-1.541008 1.56745-2.504002 2.276494-0.962994 0.70895-2.940426 1.61603-3.147834 2.015886-0.207408 0.399706-0.628554 1.04659-0.93588 1.437306-0.480588 0.61101-0.563056 1.222758-0.589388 4.372752-0.0192 2.307876 0.0886 3.80597 0.29174 4.050788 0.1773 0.213464 0.241454 0.710618 0.14258 1.104772-0.201814 0.803888 0.995276 1.998976 2.19323 1.998976 0.378296 0 0.940824 0.1911 1.250062 0.425064 0.518826 0.392484 0.45039 0.426046-0.886006 0.434252-0.904556 0.0088-2.469864-0.219804-3.238738-0.600344zm-0.680332-8.253016c-0.0156-0.517842 0.06686-1.495244 0.18314-2.172398 0.237486-1.382858-0.12706-1.640648-0.72921-0.51548-0.453844 0.847964-0.460222 2.198832-0.0144 3.032056 0.447514 0.835976 0.593138 0.746638 0.56039-0.344178z" style="fill:#4d4d4d"/>
 <path d="M 6.8007812 4 C 5.2495812 4 4 5.2495812 4 6.8007812 L 4 7.8007812 C 4 6.2495813 5.2495812 5 6.8007812 5 L 57.199219 5 C 58.750419 5 60 6.2495812 60 7.8007812 L 60 6.8007812 C 60 5.2495813 58.750419 4 57.199219 4 L 6.8007812 4 z" style="fill:#ffffff;opacity:.1"/>
</svg>

<svg xmlns="http://www.w3.org/2000/svg" width="64" height="64" version="1">
 <path style="opacity:0.2" d="M 6.8007812,5 C 5.2495812,5 4,6.2495812 4,7.8007812 L 4,54 c 0,0.008 0.00384,0.0154 0.0039,0.02344 L 4,58.316406 C 4,59.807128 5.2084502,61 6.6992188,61 L 57.300782,61 C 58.791538,61 60,59.807128 60,58.316406 L 60,54.007812 60,54 60,7.8007812 C 60,6.2495812 58.750418,5 57.199218,5 L 6.8007812,5 Z"/>
 <path style="fill:#4ab1f1" d="M 60,53 60,6.8 C 60,5.2488 58.7512,4 57.2,4 L 6.8,4 C 5.2488,4 4,5.2488 4,6.8 L 4,53 c 0,1.5512 1.2488,2.8 2.8,2.8 l 50.4,0 c 1.5512,0 2.8,-1.2488 2.8,-2.8 z"/>
 <path style="fill:#4d4d4d" d="M 4,57.317578 C 4,58.8083 5.2080596,60 6.6988282,60 L 57.301172,60 C 58.791928,60 60,58.8083 60,57.317578 L 59.9946,40 c -1.168606,0.585114 -3.022912,2.624266 -3.56289,2.932032 -1.513824,0.86315 -3.120848,0.34075 -4.008594,2.365234 C 52.094882,46.04587 52.400896,47.600368 51.672,47.7242 50.400448,47.940216 46,47.7998 45.390242,48.2198 42.618904,49.79976 39.218276,50.706768 36.161726,51.578124 35.577368,51.744664 34.643532,53.60735 34.042,53.836 31.1988,54.916644 27.364974,52 24.428524,52 20.585774,52 13.8,55.799078 9.947274,53.144 8.2643688,50.801726 6.5577994,50.243532 4.0054686,50 Z"/>
 <path style="fill:#4d4d4d" d="m 24.781886,52.211314 c -1.23615,-0.611798 -1.479198,-1.620594 -0.94137,-1.952978 0.656236,-0.405752 0.280754,-2.763162 -0.862412,-5.414776 -1.123726,-2.606552 -1.139034,-2.686748 -0.622392,-3.263164 1.205966,-1.345562 1.14357,-1.420942 -1.004236,-1.213178 -5.964047,0.576662 -6.171817,1.562896 -8.22999,2.417788 -2.710641,1.125856 -5.1522068,1.515842 -5.1522068,1.201098 0,-0.13342 0.358443,-0.343194 0.7965414,-0.466048 L 9.562362,43.29696 8.7177668,43.126592 C 7.8755056,42.956952 7.8779086,42.953332 9.5867208,41.825896 14.615008,36.718874 19.21042,30.586124 25.79017,27.130406 c 0.823986,-0.41756 1.766924,-1.040434 1.968226,-1.482244 0.19096,-0.419112 0.34721,-2.577354 0.34721,-4.061796 0,-3.146759 0.50775,-4.822905 2.409668,-5.392733 C 32,16 31.752346,15.912153 33.07517,16.734452 c 0.881208,0.547783 2.008242,2.196206 2.971702,2.315626 3.840138,0.476008 7.42321,1.941868 8.025154,2.915844 0.10848,0.1755 -0.18136,0.12332 -0.644052,-0.11596 -2.506346,-1.296096 -7.774948,-2.180203 -9.633126,-1.298444 -1.519904,0.721244 -0.618858,1.377626 -0.08098,4.432446 0.729576,4.143586 0.216016,7.45144 -1.507746,9.711404 -0.41421,0.543098 -1.541008,1.56745 -2.504002,2.276494 -0.962994,0.70895 -2.940426,1.61603 -3.147834,2.015886 -0.207408,0.399706 -0.628554,1.04659 -0.93588,1.437306 -0.480588,0.61101 -0.563056,1.222758 -0.589388,4.372752 -0.0192,2.307876 0.0886,3.80597 0.29174,4.050788 0.1773,0.213464 0.241454,0.710618 0.14258,1.104772 -0.201814,0.803888 0.995276,1.998976 2.19323,1.998976 0.378296,0 0.940824,0.1911 1.250062,0.425064 0.518826,0.392484 0.45039,0.426046 -0.886006,0.434252 -0.904556,0.0088 -2.469864,-0.219804 -3.238738,-0.600344 z m -0.680332,-8.253016 c -0.0156,-0.517842 0.06686,-1.495244 0.18314,-2.172398 0.237486,-1.382858 -0.12706,-1.640648 -0.72921,-0.51548 -0.453844,0.847964 -0.460222,2.198832 -0.0144,3.032056 0.447514,0.835976 0.593138,0.746638 0.56039,-0.344178 z"/>
 <path style="opacity:0.1;fill:#ffffff" d="M 6.8007812 4 C 5.2495812 4 4 5.2495812 4 6.8007812 L 4 7.8007812 C 4 6.2495813 5.2495812 5 6.8007812 5 L 57.199219 5 C 58.750419 5 60 6.2495812 60 7.8007812 L 60 6.8007812 C 60 5.2495813 58.750419 4 57.199219 4 L 6.8007812 4 z"/>
</svg>
